icons/input-method-line.svg

<svg viewBox="0 0 24 24" fill="currentColor" xmlns="http://www.w3.org/2000/svg">
    <path d="M5 5V19H19V5H5ZM4 3H20C20.5523 3 21 3.44772 21 4V20C21 20.5523 20.5523 21 20 21H4C3.44772 21 3 20.5523 3 20V4C3 3.44772 3.44772 3 4 3ZM9.86885 15L9.04918 17H6.83333L11 7H13L17.1667 17H14.9508L14.1311 15H9.86885ZM10.6885 13H13.3115L12 9.8L10.6885 13Z"/>
</svg>

<svg xmlns="http://www.w3.org/2000/svg" viewBox="0 0 24 24">
    <g>
        <path fill="none" d="M0 0h24v24H0z"/>
        <path d="M5 5v14h14V5H5zM4 3h16a1 1 0 0 1 1 1v16a1 1 0 0 1-1 1H4a1 1 0 0 1-1-1V4a1 1 0 0 1 1-1zm5.869 12l-.82 2H6.833L11 7h2l4.167 10H14.95l-.82-2H9.87zm.82-2h2.622L12 9.8 10.689 13z"/>
    </g>
</svg>
